src/icons/hds/ui/camera.svg

<svg xmlns="http://www.w3.org/2000/svg" width="24" height="24" viewBox="0 0 24 24">
  <g fill="none" fill-rule="evenodd">
    <rect width="24" height="24"/>
    <path fill="currentColor" d="M14,3 C15.0932688,3 15.7066522,3.32703246 16.5377728,4.12662977 L16.8345677,4.41869025 C17.2765983,4.8480735 17.4962758,4.97718121 17.8796806,4.99710672 L18,5 L19,5 C21.1421954,5 22.8910789,6.68396847 22.9951047,8.80035966 L23,9 L23,16 C23,18.1421954 21.3160315,19.8910789 19.1996403,19.9951047 L19,20 L5,20 C2.85780461,20 1.10892112,18.3160315 1.00489531,16.1996403 L1,16 L1,9 C1,6.85780461 2.68396847,5.10892112 4.80035966,5.00489531 L5,5 L6,5 C6.46201226,5 6.67919862,4.89101183 7.16543227,4.41869025 L7.4622272,4.12662977 C8.23793976,3.38033895 8.82397903,3.04570462 9.78753801,3.00440355 L10,3 L14,3 Z M14,5 L10,5 C9.53798774,5 9.32080138,5.10898817 8.83456773,5.58130975 L8.5377728,5.87337023 C7.76206024,6.61966105 7.17602097,6.95429538 6.21246199,6.99559645 L6,7 L5,7 C3.9456382,7 3.08183488,7.81587779 3.00548574,8.85073766 L3,9 L3,16 C3,17.0543618 3.81587779,17.9181651 4.85073766,17.9945143 L5,18 L19,18 C20.0543618,18 20.9181651,17.1841222 20.9945143,16.1492623 L21,16 L21,9 C21,7.9456382 20.1841222,7.08183488 19.1492623,7.00548574 L19,7 L18,7 C16.9067312,7 16.2933478,6.67296754 15.4622272,5.87337023 L15.1654323,5.58130975 C14.7234017,5.1519265 14.5037242,5.02281879 14.1203194,5.00289328 L14,5 Z M12,7 C14.7614237,7 17,9.23857625 17,12 C17,14.7614237 14.7614237,17 12,17 C9.23857625,17 7,14.7614237 7,12 C7,9.23857625 9.23857625,7 12,7 Z M12,9 C10.3431458,9 9,10.3431458 9,12 C9,13.6568542 10.3431458,15 12,15 C13.6568542,15 15,13.6568542 15,12 C15,10.3431458 13.6568542,9 12,9 Z M19,8 C19.5522847,8 20,8.44771525 20,9 C20,9.55228475 19.5522847,10 19,10 C18.4477153,10 18,9.55228475 18,9 C18,8.44771525 18.4477153,8 19,8 Z"/>
  </g>
</svg>

<svg viewBox="0 0 24 24" role="img" xmlns="http://www.w3.org/2000/svg"><g fill="none" fill-rule="evenodd"><path d="M0 0h24v24H0z"/><path d="M14 3c1.093 0 1.707.327 2.538 1.127l.297.292c.442.43.661.558 1.045.578L18 5h1a4 4 0 013.995 3.8L23 9v7a4 4 0 01-3.8 3.995L19 20H5a4 4 0 01-3.995-3.8L1 16V9a4 4 0 013.8-3.995L5 5h1c.462 0 .68-.109 1.165-.581l.297-.292c.776-.747 1.362-1.081 2.326-1.123L10 3h4zm0 2h-4c-.462 0-.68.109-1.165.581l-.297.292c-.776.747-1.362 1.081-2.326 1.123L6 7H5a2 2 0 00-1.995 1.85L3 9v7a2 2 0 001.85 1.995L5 18h14a2 2 0 001.995-1.85L21 16V9a2 2 0 00-1.85-1.995L19 7h-1c-1.093 0-1.707-.327-2.538-1.127l-.297-.292c-.442-.43-.661-.558-1.045-.578L14 5zm-2 2a5 5 0 110 10 5 5 0 010-10zm0 2a3 3 0 100 6 3 3 0 000-6zm7-1a1 1 0 110 2 1 1 0 010-2z" fill="currentColor"/></g></svg>
